icons/svg/road_shields/h_green_redtop_square_2_road_shield.svg

<?xml version="1.0" encoding="UTF-8" standalone="no"?>
<!-- Generator: Adobe Illustrator 16.0.4, SVG Export Plug-In . SVG Version: 6.00 Build 0)  -->

<svg
   xmlns:dc="http://purl.org/dc/elements/1.1/"
   xmlns:cc="http://creativecommons.org/ns#"
   xmlns:rdf="http://www.w3.org/1999/02/22-rdf-syntax-ns#"
   xmlns:svg="http://www.w3.org/2000/svg"
   xmlns="http://www.w3.org/2000/svg"
   xmlns:sodipodi="http://sodipodi.sourceforge.net/DTD/sodipodi-0.dtd"
   xmlns:inkscape="http://www.inkscape.org/namespaces/inkscape"
   version="1.1"
   id="Слой_1"
   x="0px"
   y="0px"
   width="27"
   height="24"
   viewBox="0 0 27 24"
   enable-background="new 0 0 17.143 17.17"
   xml:space="preserve"
   inkscape:version="0.91 r13725"
   sodipodi:docname="h_green_redtop_square_2_road_shield.svg"><metadata
     id="metadata13"><rdf:RDF><cc:Work
         rdf:about=""><dc:format>image/svg+xml</dc:format><dc:type
           rdf:resource="http://purl.org/dc/dcmitype/StillImage" /><dc:title></dc:title></cc:Work></rdf:RDF></metadata><defs
     id="defs11" /><sodipodi:namedview
     pagecolor="#ffffff"
     bordercolor="#666666"
     borderopacity="1"
     objecttolerance="10"
     gridtolerance="10"
     guidetolerance="10"
     inkscape:pageopacity="0"
     inkscape:pageshadow="2"
     inkscape:window-width="1920"
     inkscape:window-height="1006"
     id="namedview9"
     showgrid="false"
     inkscape:zoom="11.313709"
     inkscape:cx="11.353678"
     inkscape:cy="16.701357"
     inkscape:window-x="1920"
     inkscape:window-y="0"
     inkscape:window-maximized="1"
     inkscape:current-layer="Слой_1"
     showguides="false" /><path
     sodipodi:type="inkscape:offset"
     inkscape:radius="1.3258251"
     inkscape:original="M 4.5332031 2.9121094 C 3.8049302 2.9121094 3.21875 3.4982896 3.21875 4.2265625 L 3.21875 17.660156 C 3.21875 18.388429 3.8049302 18.974609 4.5332031 18.974609 L 30.466797 18.974609 C 31.19507 18.974609 31.78125 18.388429 31.78125 17.660156 L 31.78125 4.2265625 C 31.78125 3.4982896 31.19507 2.9121094 30.466797 2.9121094 L 4.5332031 2.9121094 z "
     style="color:#000000;clip-rule:evenodd;display:inline;overflow:visible;visibility:visible;opacity:0.83699999;isolation:auto;mix-blend-mode:normal;color-interpolation:sRGB;color-interpolation-filters:linearRGB;solid-color:#000000;solid-opacity:1;fill:#f1eae4;fill-opacity:1;fill-rule:evenodd;stroke:none;stroke-width:1.18836343;stroke-linecap:butt;stroke-linejoin:miter;stroke-miterlimit:4;stroke-dasharray:none;stroke-dashoffset:0;stroke-opacity:1;marker:none;color-rendering:auto;image-rendering:auto;shape-rendering:auto;text-rendering:auto;enable-background:accumulate"
     id="path4330"
     d="m 4.5332031,1.5859375 c -1.4397025,0 -2.640625,1.2009224 -2.640625,2.640625 l 0,13.4335935 c 0,1.439703 1.2009227,2.640625 2.640625,2.640625 l 25.9335939,0 c 1.439702,0 2.640625,-1.200922 2.640625,-2.640625 l 0,-13.4335935 c 0,-1.4397023 -1.200923,-2.640625 -2.640625,-2.640625 l -25.9335939,0 z"
     transform="matrix(0.83581529,0,0,1.0920966,-1.1267676,-1.3134139)" /><path
     style="color:#000000;clip-rule:evenodd;display:inline;overflow:visible;visibility:visible;opacity:1;isolation:auto;mix-blend-mode:normal;color-interpolation:sRGB;color-interpolation-filters:linearRGB;solid-color:#000000;solid-opacity:1;fill:#52a02b;fill-opacity:1;fill-rule:evenodd;stroke:none;stroke-width:1;stroke-linecap:butt;stroke-linejoin:miter;stroke-miterlimit:4;stroke-dasharray:none;stroke-dashoffset:0;stroke-opacity:1;marker:none;color-rendering:auto;image-rendering:auto;shape-rendering:auto;text-rendering:auto;enable-background:accumulate"
     d="m 25.175545,4.7671144 -23.3510897,0 0,13.2187506 c 0,0.806419 0.5303066,1.457031 1.1895898,1.457031 l 20.9719099,0 c 0.659283,0 1.18959,-0.650612 1.18959,-1.457031 l 0,-13.2187506 z"
     id="path4169"
     inkscape:connector-curvature="0" /><path
     style="color:#000000;clip-rule:evenodd;display:inline;overflow:visible;visibility:visible;opacity:1;isolation:auto;mix-blend-mode:normal;color-interpolation:sRGB;color-interpolation-filters:linearRGB;solid-color:#000000;solid-opacity:1;fill:#dd6a6a;fill-opacity:1;fill-rule:evenodd;stroke:none;stroke-width:1;stroke-linecap:butt;stroke-linejoin:miter;stroke-miterlimit:4;stroke-dasharray:none;stroke-dashoffset:0;stroke-opacity:1;marker:none;color-rendering:auto;image-rendering:auto;shape-rendering:auto;text-rendering:auto;enable-background:accumulate"
     d="m 3.0140451,1.6557863 c -0.6592832,0 -1.1895898,0.6486585 -1.1895898,1.4550781 l 0,1.65625 23.3510897,0 0,-1.65625 c 0,-0.8064196 -0.530307,-1.4550781 -1.18959,-1.4550781 l -20.9719099,0 z"
     id="rect4176-9"
     inkscape:connector-curvature="0" /></svg>

<svg width="27" height="24" viewBox="0 0 27 24" fill="none" xmlns="http://www.w3.org/2000/svg">
<path opacity="0.837" fill-rule="evenodd" clip-rule="evenodd" d="M2.66215 0.418579C1.45883 0.418579 0.455078 1.7301 0.455078 3.3024V17.9732C0.455078 19.5455 1.45883 20.857 2.66215 20.857H24.3378C25.5412 20.857 26.5449 19.5455 26.5449 17.9732V3.3024C26.5449 1.7301 25.5412 0.418579 24.3378 0.418579H2.66215V0.418579Z" fill="#F1EAE4"/>
<path fill-rule="evenodd" clip-rule="evenodd" d="M25.1756 4.76709H1.82446V17.9858C1.82446 18.7923 2.35477 19.4429 3.01405 19.4429H23.986C24.6452 19.4429 25.1756 18.7923 25.1756 17.9858V4.76709V4.76709Z" fill="#52A02B"/>
<path fill-rule="evenodd" clip-rule="evenodd" d="M3.01405 1.65576C2.35477 1.65576 1.82446 2.30442 1.82446 3.11084V4.76709H25.1756V3.11084C25.1756 2.30442 24.6452 1.65576 23.986 1.65576H3.01405V1.65576Z" fill="#DD6A6A"/>
</svg>
